img/razor-bottom-black.svg

<svg xmlns="http://www.w3.org/2000/svg" width="1920" height="39"><path fill-rule="evenodd" d="m1877.759 23.791-3.298-3.287 5.508-5.477h-11.004l5.496 5.477-3.305 3.287h-81.714l-4.693 4.693-9.247 9.22-6.165-6.145-31.248.136h-5.009l-12.658-12.616h-33.632l-7.238 7.214-293.262-.038-5.77-5.747-8.649 8.624-2.891-2.877-165.161.038-12.761 12.703-24.051-23.969-.007.011-.011-.011-9.053 9.022h-3.842l-2.1-2.093 3.336-3.313h-6.656l3.32 3.313-2.061 2.051-77.933.033v.009l-11-.005-11 .005v-.009l-77.933-.033-2.062-2.051 3.321-3.313h-6.656l3.335 3.313-2.099 2.093h-3.842l-9.052-9.022-.012.011-.007-.011-24.051 23.969-12.761-12.703-100.161-.038-2.891 2.877-8.649-8.624-5.77 5.747-139.262.038-7.239-7.214h-33.631l-12.659 12.616h-5.009l-31.247-.136-6.166 6.145-9.246-9.22-4.694-4.693h-81.713l-3.305-3.287 5.496-5.477h-11.004l5.508 5.477-3.298 3.287H204.638l-9.171-8.764-.018.022-.023-.022-15.968 16.668h-12.921l-7.653-7.646H.001V-.012h1919.997v24.061l-42.239-.258ZM228.624 15.027h-1.735v5.178h1.735v-5.178Zm2.624 0h-1.73v5.178h1.73v-5.178Zm12.122 0h-1.73v5.178h1.73v-5.178Zm20.798 0h-5.195v5.178h5.195v-5.178Zm320.507 9.962h-1.734v1.725h1.734v-1.725Zm6.641-3.453h-1.734v5.178h1.734v-5.178Zm13.435 0h-1.734v1.724h1.734v-1.724Zm0 3.453h-1.734v1.725h1.734v-1.725Zm1133.232-3.453h-1.734v1.724h1.734v-1.724Zm0 3.453h-1.734v1.725h1.734v-1.725Zm13.435-3.453h-1.735v5.178h1.735v-5.178Zm6.641 3.453h-1.735v1.725h1.735v-1.725Zm119.726-1.171h-6.656l.027-.027h6.603l.026.027Zm-510.007 9.393 4.093-4.079 4.104 4.079h-8.197Zm-897.907-9.393h-6.657l.027-.027h6.603l.027.027Z"/></svg>

<svg xmlns="http://www.w3.org/2000/svg" xmlns:xlink="http://www.w3.org/1999/xlink" width="1920px" height="39px">
<path fill-rule="evenodd" fill="rgb(0, 0, 0)" d="M1877.759,23.791 L1874.461,20.504 L1879.969,15.027 L1868.965,15.027 L1874.461,20.504 L1871.156,23.791 L1789.442,23.791 L1784.749,28.484 L1775.502,37.704 L1769.337,31.559 L1738.089,31.695 L1733.080,31.695 L1720.422,19.079 L1686.790,19.079 L1679.552,26.293 L1386.290,26.255 L1380.520,20.508 L1371.871,29.132 L1368.980,26.255 L1203.819,26.293 L1191.058,38.996 L1167.007,15.027 L1167.000,15.038 L1166.989,15.027 L1157.936,24.049 L1154.094,24.049 L1151.994,21.956 L1155.330,18.643 L1148.674,18.643 L1151.994,21.956 L1149.933,24.007 L1072.000,24.040 L1072.000,24.049 L1061.000,24.044 L1050.000,24.049 L1050.000,24.040 L972.067,24.007 L970.005,21.956 L973.326,18.643 L966.670,18.643 L970.005,21.956 L967.906,24.049 L964.064,24.049 L955.012,15.027 L955.000,15.038 L954.993,15.027 L930.942,38.996 L918.181,26.293 L818.020,26.255 L815.129,29.132 L806.480,20.508 L800.710,26.255 L661.448,26.293 L654.209,19.079 L620.578,19.079 L607.919,31.695 L602.910,31.695 L571.663,31.559 L565.497,37.704 L556.251,28.484 L551.557,23.791 L469.844,23.791 L466.539,20.504 L472.035,15.027 L461.031,15.027 L466.539,20.504 L463.241,23.791 L204.638,23.791 L195.467,15.027 L195.449,15.049 L195.426,15.027 L179.458,31.695 L166.537,31.695 L158.884,24.049 L0.001,24.049 L0.001,-0.012 L1919.998,-0.012 L1919.998,24.049 L1877.759,23.791 ZM228.624,15.027 L226.889,15.027 L226.889,20.205 L228.624,20.205 L228.624,15.027 ZM231.248,15.027 L229.518,15.027 L229.518,20.205 L231.248,20.205 L231.248,15.027 ZM243.370,15.027 L241.640,15.027 L241.640,20.205 L243.370,20.205 L243.370,15.027 ZM264.168,15.027 L258.973,15.027 L258.973,20.205 L264.168,20.205 L264.168,15.027 ZM584.675,24.989 L582.941,24.989 L582.941,26.714 L584.675,26.714 L584.675,24.989 ZM591.316,21.536 L589.582,21.536 L589.582,26.714 L591.316,26.714 L591.316,21.536 ZM604.751,21.536 L603.017,21.536 L603.017,23.260 L604.751,23.260 L604.751,21.536 ZM604.751,24.989 L603.017,24.989 L603.017,26.714 L604.751,26.714 L604.751,24.989 ZM1737.983,21.536 L1736.249,21.536 L1736.249,23.260 L1737.983,23.260 L1737.983,21.536 ZM1737.983,24.989 L1736.249,24.989 L1736.249,26.714 L1737.983,26.714 L1737.983,24.989 ZM1751.418,21.536 L1749.683,21.536 L1749.683,26.714 L1751.418,26.714 L1751.418,21.536 ZM1758.059,24.989 L1756.324,24.989 L1756.324,26.714 L1758.059,26.714 L1758.059,24.989 ZM1877.785,23.818 L1871.129,23.818 L1871.156,23.791 L1877.759,23.791 L1877.785,23.818 ZM1367.778,33.211 L1371.871,29.132 L1375.975,33.211 L1367.778,33.211 ZM469.871,23.818 L463.214,23.818 L463.241,23.791 L469.844,23.791 L469.871,23.818 Z"/>
</svg>
